X: 1
T: Dermot Byrne's
M: 4/4
L: 1/8
R: reel
K: Gmaj
|:dc|BGBc dcBA|GABG D2 Bd|CcCD EDCB|AGFE Dddc|
BGBc dcBA|GABG DB,G,B,|CGEG DAFA|AGFA G2:|
|:B2|d2 Bd g'bgf|eccB cBAB| cA (3dcB aAga|fddc dcBc|
d2 Bd g'bbf|eccd efge|dGBd cAFA|AGFA G2:|
